icons/ellipsis-v.svg

<svg xmlns="http://www.w3.org/2000/svg" width="96" height="96"><path d="M36 16c0-3.2 1.3-6.2 3.5-8.5C41.8 5.3 44.8 4 48 4s6.2 1.3 8.5 3.5C58.7 9.8 60 12.8 60 16s-1.3 6.2-3.5 8.5C54.2 26.7 51.2 28 48 28s-6.2-1.3-8.5-3.5C37.3 22.2 36 19.2 36 16zm8 0c0-1.1.4-2.1 1.2-2.8.7-.8 1.7-1.2 2.8-1.2 1.1 0 2.1.4 2.8 1.2.8.7 1.2 1.7 1.2 2.8 0 1.1-.4 2.1-1.2 2.8-.7.8-1.7 1.2-2.8 1.2-1.1 0-2.1-.4-2.8-1.2-.8-.7-1.2-1.7-1.2-2.8zm-8 32c0-3.2 1.3-6.2 3.5-8.5 2.3-2.2 5.3-3.5 8.5-3.5s6.2 1.3 8.5 3.5c2.2 2.3 3.5 5.3 3.5 8.5s-1.3 6.2-3.5 8.5C54.2 58.7 51.2 60 48 60s-6.2-1.3-8.5-3.5C37.3 54.2 36 51.2 36 48zm8 0c0-1.1.4-2.1 1.2-2.8.7-.8 1.7-1.2 2.8-1.2 1.1 0 2.1.4 2.8 1.2.8.7 1.2 1.7 1.2 2.8 0 1.1-.4 2.1-1.2 2.8-.7.8-1.7 1.2-2.8 1.2-1.1 0-2.1-.4-2.8-1.2-.8-.7-1.2-1.7-1.2-2.8zm-8 32c0-3.2 1.3-6.2 3.5-8.5 2.3-2.2 5.3-3.5 8.5-3.5s6.2 1.3 8.5 3.5c2.2 2.3 3.5 5.3 3.5 8.5s-1.3 6.2-3.5 8.5C54.2 90.7 51.2 92 48 92s-6.2-1.3-8.5-3.5C37.3 86.2 36 83.2 36 80zm8 0c0-1.1.4-2.1 1.2-2.8.7-.8 1.7-1.2 2.8-1.2 1.1 0 2.1.4 2.8 1.2.8.7 1.2 1.7 1.2 2.8 0 1.1-.4 2.1-1.2 2.8-.7.8-1.7 1.2-2.8 1.2-1.1 0-2.1-.4-2.8-1.2-.8-.7-1.2-1.7-1.2-2.8z" fill-rule="evenodd" fill="#454545"/></svg>

<?xml version="1.0" standalone="no"?><!-- Generator: Gravit.io --><svg xmlns="http://www.w3.org/2000/svg" xmlns:xlink="http://www.w3.org/1999/xlink" width="96" height="96"><path d=" M 36 16 C 36 12.8 37.3 9.8 39.5 7.5 C 41.8 5.3 44.8 4 48 4 C 51.2 4 54.2 5.3 56.5 7.5 C 58.7 9.8 60 12.8 60 16 C 60 19.2 58.7 22.2 56.5 24.5 C 54.2 26.7 51.2 28 48 28 C 44.8 28 41.8 26.7 39.5 24.5 C 37.3 22.2 36 19.2 36 16 Z  M 44 16 C 44 14.9 44.4 13.9 45.2 13.2 C 45.9 12.4 46.9 12 48 12 C 49.1 12 50.1 12.4 50.8 13.2 C 51.6 13.9 52 14.9 52 16 C 52 17.1 51.6 18.1 50.8 18.8 C 50.1 19.6 49.1 20 48 20 C 46.9 20 45.9 19.6 45.2 18.8 C 44.4 18.1 44 17.1 44 16 Z  M 36 48 C 36 44.8 37.3 41.8 39.5 39.5 C 41.8 37.3 44.8 36 48 36 C 51.2 36 54.2 37.3 56.5 39.5 C 58.7 41.8 60 44.8 60 48 C 60 51.2 58.7 54.2 56.5 56.5 C 54.2 58.7 51.2 60 48 60 C 44.8 60 41.8 58.7 39.5 56.5 C 37.3 54.2 36 51.2 36 48 Z  M 44 48 C 44 46.9 44.4 45.9 45.2 45.2 C 45.9 44.4 46.9 44 48 44 C 49.1 44 50.1 44.4 50.8 45.2 C 51.6 45.9 52 46.9 52 48 C 52 49.1 51.6 50.1 50.8 50.8 C 50.1 51.6 49.1 52 48 52 C 46.9 52 45.9 51.6 45.2 50.8 C 44.4 50.1 44 49.1 44 48 Z  M 36 80 C 36 76.8 37.3 73.8 39.5 71.5 C 41.8 69.3 44.8 68 48 68 C 51.2 68 54.2 69.3 56.5 71.5 C 58.7 73.8 60 76.8 60 80 C 60 83.2 58.7 86.2 56.5 88.5 C 54.2 90.7 51.2 92 48 92 C 44.8 92 41.8 90.7 39.5 88.5 C 37.3 86.2 36 83.2 36 80 Z  M 44 80 C 44 78.9 44.4 77.9 45.2 77.2 C 45.9 76.4 46.9 76 48 76 C 49.1 76 50.1 76.4 50.8 77.2 C 51.6 77.9 52 78.9 52 80 C 52 81.1 51.6 82.1 50.8 82.8 C 50.1 83.6 49.1 84 48 84 C 46.9 84 45.9 83.6 45.2 82.8 C 44.4 82.1 44 81.1 44 80 Z " fill-rule="evenodd" fill="#454545" stroke="none"/><mask id="_mask_HFgRnc2o76cgVjQuEsBLPJbKkg3vFfPZ"><path d=" M 36 16 C 36 12.8 37.3 9.8 39.5 7.5 C 41.8 5.3 44.8 4 48 4 C 51.2 4 54.2 5.3 56.5 7.5 C 58.7 9.8 60 12.8 60 16 C 60 19.2 58.7 22.2 56.5 24.5 C 54.2 26.7 51.2 28 48 28 C 44.8 28 41.8 26.7 39.5 24.5 C 37.3 22.2 36 19.2 36 16 Z  M 44 16 C 44 14.9 44.4 13.9 45.2 13.2 C 45.9 12.4 46.9 12 48 12 C 49.1 12 50.1 12.4 50.8 13.2 C 51.6 13.9 52 14.9 52 16 C 52 17.1 51.6 18.1 50.8 18.8 C 50.1 19.6 49.1 20 48 20 C 46.9 20 45.9 19.6 45.2 18.8 C 44.4 18.1 44 17.1 44 16 Z  M 36 48 C 36 44.8 37.3 41.8 39.5 39.5 C 41.8 37.3 44.8 36 48 36 C 51.2 36 54.2 37.3 56.5 39.5 C 58.7 41.8 60 44.8 60 48 C 60 51.2 58.7 54.2 56.5 56.5 C 54.2 58.7 51.2 60 48 60 C 44.8 60 41.8 58.7 39.5 56.5 C 37.3 54.2 36 51.2 36 48 Z  M 44 48 C 44 46.9 44.4 45.9 45.2 45.2 C 45.9 44.4 46.9 44 48 44 C 49.1 44 50.1 44.4 50.8 45.2 C 51.6 45.9 52 46.9 52 48 C 52 49.1 51.6 50.1 50.8 50.8 C 50.1 51.6 49.1 52 48 52 C 46.9 52 45.9 51.6 45.2 50.8 C 44.4 50.1 44 49.1 44 48 Z  M 36 80 C 36 76.8 37.3 73.8 39.5 71.5 C 41.8 69.3 44.8 68 48 68 C 51.2 68 54.2 69.3 56.5 71.5 C 58.7 73.8 60 76.8 60 80 C 60 83.2 58.7 86.2 56.5 88.5 C 54.2 90.7 51.2 92 48 92 C 44.8 92 41.8 90.7 39.5 88.5 C 37.3 86.2 36 83.2 36 80 Z  M 44 80 C 44 78.9 44.4 77.9 45.2 77.2 C 45.9 76.4 46.9 76 48 76 C 49.1 76 50.1 76.4 50.8 77.2 C 51.6 77.9 52 78.9 52 80 C 52 81.1 51.6 82.1 50.8 82.8 C 50.1 83.6 49.1 84 48 84 C 46.9 84 45.9 83.6 45.2 82.8 C 44.4 82.1 44 81.1 44 80 Z " fill-rule="evenodd" fill="white" stroke="none"/></mask><path d=" M 36 16 C 36 12.8 37.3 9.8 39.5 7.5 C 41.8 5.3 44.8 4 48 4 C 51.2 4 54.2 5.3 56.5 7.5 C 58.7 9.8 60 12.8 60 16 C 60 19.2 58.7 22.2 56.5 24.5 C 54.2 26.7 51.2 28 48 28 C 44.8 28 41.8 26.7 39.5 24.5 C 37.3 22.2 36 19.2 36 16 Z  M 44 16 C 44 14.9 44.4 13.9 45.2 13.2 C 45.9 12.4 46.9 12 48 12 C 49.1 12 50.1 12.4 50.8 13.2 C 51.6 13.9 52 14.9 52 16 C 52 17.1 51.6 18.1 50.8 18.8 C 50.1 19.6 49.1 20 48 20 C 46.9 20 45.9 19.6 45.2 18.8 C 44.4 18.1 44 17.1 44 16 Z  M 36 48 C 36 44.8 37.3 41.8 39.5 39.5 C 41.8 37.3 44.8 36 48 36 C 51.2 36 54.2 37.3 56.5 39.5 C 58.7 41.8 60 44.8 60 48 C 60 51.2 58.7 54.2 56.5 56.5 C 54.2 58.7 51.2 60 48 60 C 44.8 60 41.8 58.7 39.5 56.5 C 37.3 54.2 36 51.2 36 48 Z  M 44 48 C 44 46.9 44.4 45.9 45.2 45.2 C 45.9 44.4 46.9 44 48 44 C 49.1 44 50.1 44.4 50.8 45.2 C 51.6 45.9 52 46.9 52 48 C 52 49.1 51.6 50.1 50.8 50.8 C 50.1 51.6 49.1 52 48 52 C 46.9 52 45.9 51.6 45.2 50.8 C 44.4 50.1 44 49.1 44 48 Z  M 36 80 C 36 76.8 37.3 73.8 39.5 71.5 C 41.8 69.3 44.8 68 48 68 C 51.2 68 54.2 69.3 56.5 71.5 C 58.7 73.8 60 76.8 60 80 C 60 83.2 58.7 86.2 56.5 88.5 C 54.2 90.7 51.2 92 48 92 C 44.8 92 41.8 90.7 39.5 88.5 C 37.3 86.2 36 83.2 36 80 Z  M 44 80 C 44 78.9 44.4 77.9 45.2 77.2 C 45.9 76.4 46.9 76 48 76 C 49.1 76 50.1 76.4 50.8 77.2 C 51.6 77.9 52 78.9 52 80 C 52 81.1 51.6 82.1 50.8 82.8 C 50.1 83.6 49.1 84 48 84 C 46.9 84 45.9 83.6 45.2 82.8 C 44.4 82.1 44 81.1 44 80 Z " fill-rule="evenodd" fill="none" stroke="none" stroke-width="16" mask="url(#_mask_HFgRnc2o76cgVjQuEsBLPJbKkg3vFfPZ)"/></svg>
